media/icon-file-type/svgs/executable/16.svg

<svg width="16" height="16" viewBox="0 0 16 16"><path fill="#758195" fill-rule="evenodd" d="M0,1.99406028 C0,0.892771196 0.894513756,0 1.99406028,0 L14.0059397,0 C15.1072288,0 16,0.894513756 16,1.99406028 L16,14.0059397 C16,15.1072288 15.1054862,16 14.0059397,16 L1.99406028,16 C0.892771196,16 0,15.1054862 0,14.0059397 L0,1.99406028 Z M3,8.71428571 L3,12.2857143 C3,12.6802034 3.31979661,13 3.71428571,13 L12.2857143,13 C12.6802034,13 13,12.6802034 13,12.2857143 L13,8.71428571 L3,8.71428571 Z M4.34484444,3 C3.98461354,3 3.68075567,3.26824032 3.63607453,3.62568948 L3,8.71428571 L13,8.71428571 L12.3639255,3.62568948 C12.3192443,3.26824032 12.0153865,3 11.6551556,3 L4.34484444,3 Z M5.14285714,10.1428571 L10.8571429,10.1428571 C11.251632,10.1428571 11.5714286,10.4626538 11.5714286,10.8571429 C11.5714286,11.251632 11.251632,11.5714286 10.8571429,11.5714286 L5.14285714,11.5714286 C4.74836804,11.5714286 4.42857143,11.251632 4.42857143,10.8571429 C4.42857143,10.4626538 4.74836804,10.1428571 5.14285714,10.1428571 Z"/></svg>

<svg width="16" height="16" viewBox="0 0 16 16"><path fill="#5E6C84" fill-rule="evenodd" d="M0 1.994C0 .893.895 0 1.994 0h12.012C15.107 0 16 .895 16 1.994v12.012A1.995 1.995 0 0114.006 16H1.994A1.995 1.995 0 010 14.006V1.994zm3 6.72v3.572c0 .394.32.714.714.714h8.572c.394 0 .714-.32.714-.714V8.714H3zM4.345 3a.714.714 0 00-.709.626L3 8.714h10l-.636-5.088A.714.714 0 0011.655 3h-7.31zm.798 7.143h5.714a.714.714 0 010 1.428H5.143a.714.714 0 110-1.428z"/></svg>
